assets/Input symbols/Flat/input_symbols_flat.svg

<svg width="32" height="32" viewBox="0 0 32 32" fill="none" xmlns="http://www.w3.org/2000/svg">
<path d="M2 6C2 3.79086 3.79086 2 6 2H26C28.2091 2 30 3.79086 30 6V26C30 28.2091 28.2091 30 26 30H6C3.79086 30 2 28.2091 2 26V6Z" fill="#00A6ED"/>
<path d="M21.6579 10.4101C21.6047 10.4585 21.6022 10.5415 21.6531 10.5924L22.7914 11.7307C22.8397 11.779 22.9178 11.7796 22.9668 11.732L24.2355 10.5008C24.5327 10.2124 25.0076 10.2195 25.296 10.5167C25.5845 10.814 25.5774 11.2888 25.2801 11.5773L24.0303 12.7902C23.9802 12.8388 23.9796 12.919 24.029 12.9683L25.1553 14.0947C25.4482 14.3876 25.4482 14.8624 25.1553 15.1553C24.8624 15.4482 24.3876 15.4482 24.0947 15.1553L23.0242 14.0848C22.9726 14.0332 22.888 14.0367 22.8397 14.0914C22.3045 14.6976 21.6296 15.2422 20.6094 15.2422C19.2173 15.2422 18.0156 14.1213 18.0156 12.6875C18.0156 11.8374 18.5131 11.1754 18.9732 10.7231C19.0601 10.6375 19.1505 10.555 19.2422 10.4758C19.2892 10.4352 19.2908 10.3627 19.2448 10.321V10.321L19.2084 10.2881C19.0705 10.1631 18.9029 10.0095 18.7481 9.83398C18.424 9.4665 18.125 8.96718 18.125 8.27344C18.125 6.96608 19.1848 5.90625 20.4922 5.90625C21.7995 5.90625 22.8594 6.96608 22.8594 8.27344C22.8594 9.089 22.3718 9.70622 21.9405 10.1407C21.849 10.2328 21.7537 10.3228 21.6579 10.4101ZM20.4922 7.40625C20.0133 7.40625 19.625 7.7945 19.625 8.27344C19.625 8.48595 19.701 8.64678 19.873 8.8418C19.9663 8.94752 20.0769 9.05081 20.2159 9.17676L20.2562 9.21329C20.3055 9.25779 20.3588 9.30597 20.4135 9.35686C20.461 9.40106 20.5345 9.40286 20.5829 9.35961C20.6875 9.26619 20.7853 9.17521 20.8759 9.08391C21.2454 8.71174 21.3594 8.46568 21.3594 8.27344C21.3594 7.7945 20.9711 7.40625 20.4922 7.40625ZM21.7865 13.0084C21.8285 12.9593 21.8253 12.8859 21.7795 12.8402L20.4283 11.4889C20.4164 11.477 20.3984 11.4737 20.3828 11.4798V11.4798C20.3788 11.4814 20.3751 11.4835 20.3717 11.4862C20.2512 11.5833 20.1343 11.6849 20.0249 11.7926C19.6626 12.1488 19.5156 12.4439 19.5156 12.6875C19.5156 13.2515 20.0037 13.7422 20.6094 13.7422C21.0484 13.7422 21.3295 13.5441 21.7865 13.0084Z" fill="white"/>
<path d="M7.24219 6.00781C6.96605 6.00781 6.74219 6.23167 6.74219 6.50781C6.74219 6.78395 6.96605 7.00781 7.24219 7.00781L14.7598 7.00781C15.0359 7.00781 15.2598 6.78396 15.2598 6.50781C15.2598 6.23167 15.0359 6.00781 14.7598 6.00781L7.24219 6.00781Z" fill="white"/>
<path d="M6.7666 9C6.7666 8.44772 7.21432 8 7.7666 8H14.2354C14.7876 8 15.2354 8.44772 15.2354 9C15.2354 9.55228 14.7876 10 14.2354 10H12.126C12.0569 10 12.001 10.056 12.001 10.125V14.0938C12.001 14.646 11.5533 15.0938 11.001 15.0938C10.4487 15.0938 10.001 14.646 10.001 14.0938V10.125C10.001 10.056 9.94501 10 9.87598 10H7.7666C7.21432 10 6.7666 9.55228 6.7666 9Z" fill="white"/>
<path d="M10.5977 17.9844C8.683 17.9844 7.13086 19.5365 7.13086 21.4512C7.13086 23.3658 8.683 24.918 10.5977 24.918C11.0119 24.918 11.3477 25.2538 11.3477 25.668C11.3477 26.0822 11.0119 26.418 10.5977 26.418C7.85457 26.418 5.63086 24.1943 5.63086 21.4512C5.63086 18.7081 7.85457 16.4844 10.5977 16.4844C13.3407 16.4844 15.5645 18.7081 15.5645 21.4512C15.5645 22.1816 15.4063 22.8771 15.1217 23.5037C15.1097 23.53 15.0964 23.5554 15.0818 23.5797C14.9621 23.8349 14.7029 24.0117 14.4023 24.0117H12.1611C11.9636 24.0117 11.784 23.9354 11.65 23.8106C11.607 23.7706 11.5441 23.7567 11.4907 23.7812C11.1794 23.9241 10.8331 24.0039 10.4682 24.0039C9.11367 24.0039 8.01562 22.9058 8.01562 21.5513C8.01562 20.1968 9.11367 19.0988 10.4682 19.0988C10.8468 19.0988 11.2053 19.1845 11.5254 19.3377C11.5765 19.3621 11.6372 19.3511 11.6806 19.3148C11.8107 19.2061 11.9783 19.1406 12.1611 19.1406C12.5753 19.1406 12.9111 19.4764 12.9111 19.8906V21.3329C12.9175 21.4049 12.9207 21.4777 12.9207 21.5513C12.9207 21.6249 12.9175 21.6977 12.9111 21.7697V22.3867C12.9111 22.4558 12.9671 22.5117 13.0361 22.5117H13.8083C13.8626 22.5117 13.9109 22.4767 13.9261 22.4246C14.0161 22.1163 14.0645 21.7898 14.0645 21.4512C14.0645 19.5365 12.5123 17.9844 10.5977 17.9844ZM10.4682 20.5988C9.9421 20.5988 9.51562 21.0252 9.51562 21.5513C9.51562 22.0774 9.9421 22.5039 10.4682 22.5039C10.9451 22.5039 11.3402 22.1533 11.4098 21.6958C11.4107 21.69 11.4111 21.684 11.4111 21.6781V21.4245C11.4111 21.4186 11.4107 21.4127 11.4098 21.4068C11.3402 20.9493 10.9451 20.5988 10.4682 20.5988Z" fill="white"/>
<path d="M23.9074 17.119C24.3854 17.3958 24.5484 18.0076 24.2716 18.4856L20.1857 25.5402C19.9089 26.0182 19.297 26.1812 18.8191 25.9044C18.3412 25.6276 18.1782 25.0158 18.455 24.5379L22.5409 17.4832C22.8177 17.0053 23.4295 16.8422 23.9074 17.119Z" fill="white"/>
<path d="M17.9772 18.5177C17.9772 17.6893 18.6487 17.0177 19.4772 17.0177C20.3056 17.0177 20.9772 17.6893 20.9772 18.5177C20.9772 19.3461 20.3056 20.0177 19.4772 20.0177C18.6487 20.0177 17.9772 19.3461 17.9772 18.5177ZM19.4772 18.0177C19.201 18.0177 18.9772 18.2416 18.9772 18.5177C18.9772 18.7938 19.201 19.0177 19.4772 19.0177C19.7533 19.0177 19.9772 18.7938 19.9772 18.5177C19.9772 18.2416 19.7533 18.0177 19.4772 18.0177Z" fill="white"/>
<path d="M23.5162 23.0099C22.6878 23.0099 22.0162 23.6815 22.0162 24.5099C22.0162 25.3383 22.6878 26.0099 23.5162 26.0099C24.3447 26.0099 25.0162 25.3383 25.0162 24.5099C25.0162 23.6815 24.3447 23.0099 23.5162 23.0099ZM23.0162 24.5099C23.0162 24.2337 23.2401 24.0099 23.5162 24.0099C23.7924 24.0099 24.0162 24.2337 24.0162 24.5099C24.0162 24.786 23.7924 25.0099 23.5162 25.0099C23.2401 25.0099 23.0162 24.786 23.0162 24.5099Z" fill="white"/>
</svg>

<svg xmlns="http://www.w3.org/2000/svg" width="32" height="32" fill="none"><path fill="#00A6ED" d="M2 6a4 4 0 0 1 4-4h20a4 4 0 0 1 4 4v20a4 4 0 0 1-4 4H6a4 4 0 0 1-4-4V6Z"/><path fill="#fff" d="M21.658 10.41a.126.126 0 0 0-.005.182l1.138 1.139a.125.125 0 0 0 .176.001l1.268-1.231a.75.75 0 0 1 1.045 1.076l-1.25 1.213a.125.125 0 0 0-.001.178l1.126 1.127a.75.75 0 1 1-1.06 1.06l-1.07-1.07a.127.127 0 0 0-.185.006c-.535.607-1.21 1.151-2.23 1.151-1.393 0-2.594-1.12-2.594-2.555 0-.85.497-1.512.957-1.964.087-.086.178-.168.27-.247a.103.103 0 0 0 .002-.155l-.037-.033a5.771 5.771 0 0 1-.46-.454c-.324-.367-.623-.867-.623-1.56a2.367 2.367 0 1 1 4.734 0c0 .815-.487 1.432-.919 1.867a7.89 7.89 0 0 1-.282.27Zm-1.166-3.004a.867.867 0 0 0-.867.867c0 .213.076.374.248.569.093.106.204.209.343.335l.04.036c.05.045.103.093.157.144a.126.126 0 0 0 .17.003 6.7 6.7 0 0 0 .293-.276c.37-.372.483-.618.483-.81a.867.867 0 0 0-.867-.868Zm1.294 5.602a.124.124 0 0 0-.007-.168l-1.35-1.351a.043.043 0 0 0-.046-.01 4.67 4.67 0 0 0-.358.313c-.362.357-.51.652-.51.896 0 .563.489 1.054 1.094 1.054.44 0 .72-.198 1.177-.734ZM7.242 6.008a.5.5 0 0 0 0 1h7.518a.5.5 0 0 0 0-1H7.242ZM6.767 9a1 1 0 0 1 1-1h6.468a1 1 0 0 1 0 2h-2.109a.125.125 0 0 0-.125.125v3.969a1 1 0 0 1-2 0v-3.969A.125.125 0 0 0 9.876 10h-2.11a1 1 0 0 1-1-1ZM10.598 17.984a3.467 3.467 0 1 0 0 6.934.75.75 0 0 1 0 1.5 4.967 4.967 0 1 1 4.524-2.914.76.76 0 0 1-.04.076.75.75 0 0 1-.68.432h-2.24a.747.747 0 0 1-.512-.201.146.146 0 0 0-.16-.03 2.453 2.453 0 1 1 .035-4.443.146.146 0 0 0 .156-.023.75.75 0 0 1 1.23.576v1.442a2.466 2.466 0 0 1 0 .437v.617c0 .069.056.125.125.125h.772a.122.122 0 0 0 .118-.087 3.467 3.467 0 0 0-3.328-4.44Zm-.13 2.615a.953.953 0 1 0 .943 1.08v-.255l-.001-.017a.953.953 0 0 0-.942-.808ZM23.907 17.119a1 1 0 0 1 .365 1.367l-4.086 7.054a1 1 0 1 1-1.731-1.002l4.086-7.055a1 1 0 0 1 1.366-.364ZM17.977 18.518a1.5 1.5 0 1 1 3 0 1.5 1.5 0 0 1-3 0Zm1.5-.5a.5.5 0 1 0 0 1 .5.5 0 0 0 0-1ZM23.516 23.01a1.5 1.5 0 1 0 0 3 1.5 1.5 0 0 0 0-3Zm-.5 1.5a.5.5 0 1 1 1 0 .5.5 0 0 1-1 0Z"/></svg>
